resources/svg/align-top-o.svg

<svg xmlns="http://www.w3.org/2000/svg" viewBox="0 0 15 15" fill="none"><path d="M15 0.5H0M11.5 3.5H8.5V10.5H11.5V3.5ZM6.5 3.5H3.5V14.5H6.5V3.5Z" stroke="black"/></svg>

<svg xmlns="http://www.w3.org/2000/svg" viewBox="0 0 15 15" fill="none"><path d="M15 .5H0m11.5 3h-3v7h3v-7zm-5 0h-3v11h3v-11z" stroke="currentColor"/></svg>
